www/assets/icons/format_size.svg

<svg width="24" height="24" viewBox="0 0 24 24" xmlns="http://www.w3.org/2000/svg" fill='currentColor'><path d="M8.5 4.5V7.5H13.5V19.5H16.5V7.5H21.5V4.5H8.5ZM2.5 12.5H5.5V19.5H8.5V12.5H11.5V9.5H2.5V12.5Z"/></svg>

<svg xmlns="http://www.w3.org/2000/svg" width="24" height="24" viewBox="0 0 24 24" fill='currentColor'><path d="M8.5 4.5v3h5v12h3v-12h5v-3zm-6 8h3v7h3v-7h3v-3h-9z"/></svg>
